!!!PDT:	1923
!!!LANG: Non-Tone
!!!LING_GROUP: Siouan
!!!REG: Dakotas
!!!COM: Anon.
!!!OTL: Going to Dance
!!!ODT: <1918//
!!!MPN: Kekahamahe [Little Crow]
!!!MLC: Fort Berthold Reservation, North Dakota, United States of America
!! Song was recorded during either the summer of 1912, 1915, or 1918.
!!!AGN: monody
!!!SOCIAL_FUNCTION: Mandan Black Mouth Society
!!!AMT: irregular
!!!RWG: Transcribed pitches, durations, and meters are only approximate.
!! Drum not recorded.
**kern
*ICvox
*Ifemale
*clefF4
*k[b-e-a-d-]
*M3/4
*MM72
8F
(12A-
12F
12F)
=1
[4F
12F]
12E-
24r
24B-
(12F
12F
12F)
=2
4A-
12F
12r
12A-
(12F
12F
12F)
=3
4F
(12E-
12C
12E-)
8.C
16C
=4
4C
4FF
(12C
12C
12C)
*M2/4
=5
4F
(12F
12E)
12C
=6
16E-
8.C
16C
8.C
=7
(12C
12AA-
12AA-)
4FF
*M3/4
=8
8.AA-
16FF
4AA-
(12BB-
12AA-
12AA-)
=9
4FF
2CC
=10
2.CC
==
*-
!!!CNT: Mandan
!!!TXO: Mandan
!!!OCY: United States
!!!OCL: Frances Densmore
!!!YOR: Frances Densmore, "Mandan and Hidatsa Music",
!!!YOR: Bulletin 80, page 51, No. 9
!!!PPR: Smithsonian Institution, Bureau of American Ethnology
!!!PPR: Government Printing Office
!!!PDT: 1923
!!!PPP: Washington, DC, United States of America
!!!YEC: Electronic Copyright 2000 David Huron
!!!YER: August 2000
!!!YEN: United States of America
!!!ENC: David Huron
!!!RDT: August 16, 2000
!!!EEV: Release 1.0
!!!AIN: tom, vox
